X:205
T: Der undankbare Sohn
N: Q0123
O: Mitteleuropa, Deutschland
N: Tonangabe zur Ballade: Lindenschmidt - Ton
R: Ballade, Moral, Respekt vor dem Alter; Zeitungs - Lied
M: none
L: 1/8
K: G
G | G2G2d2d2 | d2_B2A2z
A | c2c2c2c2 | _BdcBA2z
c | _B2Bc2B | A2G2z
G | A2_B2c2c2 | _BdcBA2z
G | _B2Bc2B | A2G8

@@@ Tune index: 1498
